X:6170
T:Sonny Brogan's mazurka jig
O:england
S:Cathal McConnell
M:6/8
L:1/8
K:D
DFG|A3 AFA|dcd B2A|G3 BAG|FGE DFG|
A3 AFA|dcd B2A|G3 gfe|d3:|
A2d|fef faf|ede ege|dcd fed|cdB Ade|
fef faf|ede gfe|dcd fec|d3 Ade:|
